X:1
T:What Would We Do Without the Clouds?
T:What Would We Do Without the Clouds?
T:Alfred Henry Ackley
T:Alfred Henry Ackley, 1922
T:Public Domain Courtesy of the Cyber Hymnal™
T:Public Domain Courtesy of the Cyber Hymnal™
C:Alfred Henry Ackley
Z:Public Domain
Z:Courtesy of the Cyber Hymnal™
%%score ( 1 2 ) ( 3 4 )
L:1/8
Q:1/4=100
M:4/4
K:F
V:1 treble 
V:2 treble 
V:3 bass 
V:4 bass 
V:1
 [A,C]3 [A,^C] [B,D]2 [DF]2 | [CE]2 [Cc]2 [FA]4 | [Fc]3 [Fd] [Fc][FA][FG]F | [FA]2 [FG]2 [EG]4 | %4
w: 1.~God is good, He|sends the rain;|For His glo- ry, we should|not com- plain;|
w: 2.~Ver- dant mea- dows,|fruits and flowers,|Ga- ther beau- ty from the|fall- ing showers;|
w: 3.~Cloud- less sky makes|bar- ren land;|Parched and thirst- y is the|des- ert sand;|
 [A,C]3 [A,^C] [B,D]2 [DF]2 | [CE]2 [Cc]2 A4 | [EG][EA][E=B][Ec] [Ed]2 [FG]2 | c8 || %8
w: What He sends is|al- ways best,|Storm- y clouds and all the|rest.|
w: Clouds are sail- boats|from a- bove,|La- den with the gifts of|love.|
w: So would life be|bar- ren, too,|If there were no clouds for|you.|
"^Refrain" (3C[CD][CE] [CF]>[CG] [FA]>[F^G] [FA]>[Fc] | [^FB]2 [FA]2 D4 | %10
w: ||
w: What would we do with- out the clouds? The|clouds bring rain,|
w: ||
 (3C[CD][C^D] [CE]>[=DF] [EG]>[E^F] [EG]>[Ed] | [Ec]2 [GB]2 [FA]4 | %12
w: ||
w: Scat- ter- ing showers of bless- ing o- ver|hill and plain,|
w: ||
 (3C[CD][CE] [CF]>[CG] [FA]>[F^G] [FA]>[Fc] | [^FB]2 [FA]2 d4 | %14
w: ||
w: Bring- ing to us the har- vest of the|gold- en grain;|
w: ||
 (3[Gd][G^c][Gd] [^Ge]>[Gd] [A=c]>[Ad] !fermata![^FA]>[FA] | .[FA]2 G2 .[CF]4 |] %16
w: ||
w: What would we do with- out the clouds? The|clouds bring rain.|
w: ||
V:2
 x8 | x8 | x7 F | x8 | x8 | x4 (F2 ^D2) | x8 | (E2 B2 A2 G2) || C x7 | x4 D4 | C x7 | x8 | C x7 | %13
 x4 (D2 G2) | x8 | x2 (.E.C) x4 |] %16
V:3
 F,3 F, [B,,F,]2 [B,,B,]2 | [C,B,]2 [C,B,]2 [F,C]4 | [F,A,]3 [F,B,] [F,A,][F,C][F,B,][F,A,] | %3
 [D,=B,]2 [G,B,]2 [C,C]4 | F,3 F, [B,,F,]2 [B,,B,]2 | [C,B,]2 [C,B,]2 C4 | %6
 [G,C][G,C][G,C][G,C] [G,=B,]2 [G,B,]2 | (C2 D2 C2 B,2) || %8
 (3[F,A,][F,A,][F,A,] [F,A,]>[F,B,] [F,C]>[F,=B,] [F,C]>[F,A,] | [D,D]2 [D,C]2 [G,B,]4 | %10
 (3[C,E,][C,F,][C,^G,] [C,G,]>[C,G,] [C,C]>[C,C] [C,C]>[C,C] | [C,G,]2 [C,C]2 [F,C]4 | %12
 (3[F,A,][F,A,][F,A,] [F,A,]>[F,B,] [F,C]>[F,=B,] [F,C]>[F,A,] | [D,D]2 [D,C]2 [G,B,]4 | %14
 (3[B,F][B,F][B,F] [=B,E]>[B,F] [CF]>[CF] !fermata![D,D]>[D,C] | .[G,=B,]2 .[C,_B,]2 .[F,,F,A,]4 |] %16
V:4
 F,3 F, x4 | x8 | x8 | x8 | F,3 F, x4 | x4 (F,2 ^F,2) | x8 | C,8 || x8 | x8 | x8 | x8 | x8 | x8 | %14
 x8 | x8 |] %16

